X: 29368
T: Newmarket, The
R: polka
M: 2/4
K: Gmajor
|:d/|GB d2|g/a/g/f/ ef|AB c2|e/f/e/d/ B/c/d|
GB dB/d/|gf ef|A>B cA|GF G3/2:|
|:a/|bd b>d|bd b2|ae a>e|ae f/g/a/f/|
bd b>d|bd bc'/b/|ae a/g/f/g/|ag g3/2:|

